X:79
T:Miss Gayton's Hornpipe
O:No 79 Wm Clarke MS  Feltwell, Norfolk
I:abc2nwc
M:4/4
L:1/8
K:G
dc|Bd gf g2dc|Bd gf g2dc|Bb ag fe d^c|df ag fe dc|
Bd gf g2dc|Bd gf g2d2|ef ge fg af|g3/2f/2 g3/2a/2 g2:|
|:ga|ba bg a2f2|gf ge d2B2|c2ec B2dB|AG AB A2ga|
ba bg a2f2|gf ge d2gf|ef ge fg af|g3/2f/2 g3/2a/2 g2:|

